X:2991
L:1/8
M:4/4
K:C
[M:6/8][K:D] fa[Q:1/8=260] F2 G |: [AF]3 d3 | DFA d2 f | e ^d2 e g2 | [BG]3 c2 B | A2 B c2 d | 
 e g2 B2 c | dfe dcB | A3 F2 G | [AF]3 d3 | DFA d2 f | e ^d2 e g2 | [BG]3 c2 B | A2 B c2 d | 
 e g2 B2 c | d3 d3 |1 d3 z D/F/G/^G/ :|2 d3 ^d2 f || ecA EAc | e3 a2 g | fdA FAd | f3 a3 | 
 ^gbg [fd]3 | efe d3 | cac B2 c | A3 F2 G | [AF]3 d3 | DFA d2 f | e ^d2 e g2 | [BG]3 c2 B | 
 A2 B c2 d | e g2 B2 c | d3 d3 | !fermata!d6 |]

